icons/tsconfig.svg

<svg xmlns="http://www.w3.org/2000/svg" viewBox="0 0 32 32">
  <path mit-no-recolor="true" d="M15,2H6A2.00587,2.00587,0,0,0,4,4V26a2.00591,2.00591,0,0,0,2,2h6V24H6V22h6V20H6V18h6V16H6V14h6V12h2V4l8,8h2V11Z" style="fill: #757575"/>
  <path d="M12,12V30H30V12Zm8,6H18v8H16V18H14V16h6Zm8,0H24v2h2a2.00587,2.00587,0,0,1,2,2v2a2.00591,2.00591,0,0,1-2,2H22V24h4V22H24a2.00591,2.00591,0,0,1-2-2V18a2.00587,2.00587,0,0,1,2-2h4Z" style="fill: #0288d1"/>
</svg>

<svg xmlns="http://www.w3.org/2000/svg" viewBox="0 0 32 32"><path fill="#757575" d="M15 2H6a2.006 2.006 0 0 0-2 2v22a2.006 2.006 0 0 0 2 2h6v-4H6v-2h6v-2H6v-2h6v-2H6v-2h6v-2h2V4l8 8h2v-1Z"/><path fill="#0288d1" d="M12 12v18h18V12Zm8 6h-2v8h-2v-8h-2v-2h6Zm8 0h-4v2h2a2.006 2.006 0 0 1 2 2v2a2.006 2.006 0 0 1-2 2h-4v-2h4v-2h-2a2.006 2.006 0 0 1-2-2v-2a2.006 2.006 0 0 1 2-2h4Z"/></svg>
